!!!!SEGMENT: pl-lzu--m-15111--001-033_noskowski-zygmunt--spiewnik-dla-dzieci-op-34-33-jaskolka.krn
!!!cenid: 18xx:4730
!!!COM: Noskowski, Zygmunt
!!!COM-rismID: pe106604
!!!CDT: 1846/05/02-1909/07/23
!!!CNT: Polish
!!!GTL: Śpiewnik dla dzieci, op. 34
!!!OTL: 33. Jaskółka
!!!OMV: 033
!!!PDT: 1890
!!!AGN: Secular; Song; Children
!!!YEC: Copyright 2022 Narodowy Instytut Fryderyka Chopina (https://polishscores.org)
!!!YEM: License CC-BY-4.0 (https://creativecommons.org/licenses/by/4.0)
!!!SMS-siglum: PL-LŹu
!!!SMS-shelfmark: M 15111
!!!SMS-variant:
!!!SMS-altvar:
!!!SMS-shelfwork: 001-033 G
!!!NIFC-rismSourceID: 1001234040
!!!NIFC-rismChildID: 1001234040
!!!NIFC-islandoraID: pl-lzu:5455
!!!URL-pdf-islandora: https://repozytorium.nifc.pl/islandora/object/pl-lzu%3A5455/datastream/PDF/view
!!!URL-scan: https://polish.musicsources.pl/pl/lokalizacje/galeria/druki-muzyczne/23228/40 @EN{Scan on Polish Music Sources Website} @PL{Skany w portalu Dziedzictwo Muzyki Polskiej w otwartym dostępie}
!!!IIIF:
!!!ONB-nifc:
!!!AIN: 1 piano 1 vox
!!!key: d
!!!OMD: Moderato con moto.
**kern	**kern	**dynam	**kern	**text	**text	**dynam
*part2	*part2	*part2	*part1	*part1	*part1	*part1
*staff3	*staff2	*staff2,3	*staff1	*staff1	*staff1	*staff1
*I"[Piano]	*I"[Piano]	*	*I"[Voice]	*	*	*
*I'pf	*I'pf	*	*I'V	*	*	*
*Ipiano	*Ipiano	*	*Ivox	*	*	*
*ICklav	*ICklav	*	*ICvox	*	*	*
*IGacomp	*IGacomp	*	*IGsolo	*	*	*
*>[A,A]	*>[A,A]	*>[A,A]	*>[A,A]	*>[A,A]	*>[A,A]	*>[A,A]
*>A	*>A	*>A	*>A	*>A	*>A	*>A
*clefF4	*clefG2	*	*clefG2	*	*	*
*k[b-]	*k[b-]	*	*k[b-]	*	*	*
*d:	*d:	*	*d:	*	*	*
*M3/4	*M3/4	*	*M3/4	*	*	*
=1	=1	=1	=1	=1	=1	=1
!	!LO:TX:a:i:t=Umiarkowanie, z ruchem.	!	!	!	!	!
4r	(8c#X/L	.	2.r	.	.	.
.	8d/J	.	.	.	.	.
4D 4GG/	4f 4B-/)	.	.	.	.	.
4E 4GG#X/	4e 4Bn/	.	.	.	.	.
=2	=2	=2	=2	=2	=2	=2
4E 4AA/	(8dL 8A/	.	2.r	.	.	.
.	8c#X/J)	.	.	.	.	.
2G:: 2E:: 2AA::\	2a:: 2c#:: 2A::/	.	.	.	.	.
=3	=3	=3	=3	=3	=3	=3
*	*	*	*	*v:1	*v:2	*
4DD/	(8.a/L	.	8.a/	Czar-	Czar-	p
!	!	!	!LO:TX:a:i:t=espressivo	!	!	!
.	.	.	.	.	.	.
.	16g#X/Jk	.	16g#X/	-na	-na	.
4A 4F 4D\	4a/	.	4a/	ja-	ja-	.
4d 4A 4F\	4f/)	.	4f/	-skó-	-skó-	.
=4	=4	=4	=4	=4	=4	=4
4FF/	(4e/	.	4e/	-łecz-	-łecz-	.
4A 4D\	2d/)	.	2d/	-ka	-ka	.
4A 4D\	.	.	.	.	.	.
!!LO:LB:g=original
=5	=5	=5	=5	=5	=5	=5
*	*	*	*	*v:1	*v:2	*
4EE/	(8.b-/L	.	8.b-/	Do	Kar-	.
.	16a/Jk	.	16a/	gniaz-	-mi	.
4B- 4G 4D\	4b-/	.	4b-/	-decz-	dziat-	.
4d 4B- 4G\	4g/)	.	4g/	-ka	-ki	.
=6	=6	=6	=6	=6	=6	=6
4AA/	(4e/	.	4e/	le-	swo-	.
4c#X 4A 4E\	4a/)	.	2a,/	-ci.	-je.	.
4r	4r	.	.	.	.	.
=7	=7	=7	=7	=7	=7	=7
*clefG2	*	*	*	*	*	*
!	!	!	!	!	!	!LO:DY:rj
4a 4f/	(8dd\L	f	4dd\	Pi!	Pi!	f
.	8ddd\J)	.	.	.	.	.
2g 2e/	2ccc 2cc\	.	2cc\	pi!	pi!	.
=8	=8	=8	=8	=8	=8	=8
4f 4d/	(8b-\L	.	4b-/	pi!	pi!	.
.	8bb-\J)	.	.	.	.	.
2e 2c/	2aa 2a\	.	2a,/	pi!	pi!	.
=9	=9	=9	=9	=9	=9	=9
*clefF4	*	*	*	*	*	*
!	!	!LO:DY:rj	!	!	!	!LO:DY:rj
4ryy	(8g/L	p	8g/	Krzy-	Krzy-	p
.	8a/J)	.	8a/	-czą	-czy	.
4G 4GG/	4b- 4d/	.	4b-/	gło-	wszyst-	.
4E 4C/	4g 4B-/	.	4g/	-dne	-ko	.
!!LO:LB:g=original
=10	=10	=10	=10	=10	=10	=10
*	*	*	*	*v:1	*v:2	*
4F 4FF/	4f 4A/	.	4f/	dzie-	tro-	.
4F 4FF/	4f 4A/	.	4f/	-ci.	-je.	.
4GG/	4r	.	4r	.	.	.
=11	=11	=11	=11	=11	=11	=11
2AA/	(8.e/L	.	8.e/	Czar-	Czar-	.
.	16f/Jk)	.	16f/	-na	-na	.
.	4g 4c#X 4A/	.	4g/	ja-	ja-	.
4GG/	4e 4c# 4A/	.	4e/	-skó-	-skó-	.
=12	=12	=12	=12	=12	=12	=12
2FF/	(4a/	.	4a/	-łecz-	-łecz-	.
.	4d 4A/)	.	4d/	-ka	-ka	.
4GG/	(8B-/L	.	8r	.	.	.
.	8d/J)	.	8d/	Ro-	Po	.
=13	=13	=13	=13	=13	=13	=13
2.CC/	(8e/L	.	(8e/L	-bacz-	mu-	.
.	8f/J)	.	8f/J)	.	.	.
.	4g 4e 4B-/	.	4g/	-ki	-szki	.
.	4b- 4e 4B-/	.	4b-/	przy-	znów	.
=14	=14	=14	=14	=14	=14	=14
*	*^	*	*	*	*	*
2FF/	(2a/	4r	.	2a/	-no-	le-	.
.	.	4f 4c\	.	.	.	.	.
4r	4b-/)	4r	.	4b-,/	-si.	-ci.	.
*	*v	*v	*	*	*	*	*
!!LO:PB:g=original
=15	=15	=15	=15	=15	=15	=15
*clefG2	*	*	*	*v:1	*v:2	*
4g 4e/	(8cc\L	.	4cc\	Pi!	Pi!	f
.	8ccc\J)	.	.	.	.	.
2f 2d/	2bb- 2b-\	.	2b-\	pi!	pi!	.
=16	=16	=16	=16	=16	=16	=16
4e 4c/	(8a\L	.	4a/	Pi!	Pi!	.
.	8aa\J)	.	.	.	.	.
2d 2B-/	2gg 2g\	.	2g/	pi!	pi!	.
=17	=17	=17	=17	=17	=17	=17
*clefF4	*	*	*	*	*	*
!	!	!	!	!	!	!LO:DY:rj
4r	(8a/L	.	8a/	Każ-	Krzy-	p
.	8b-/J)	.	8b-/	-de	-czą	.
4A\	4dd 4g 4e/	.	4dd\	o	gło-	.
4A\	4cc#X 4g 4e/	.	4cc#X\	nie	-dne	.
=18	=18	=18	=18	=18	=18	=18
4A 4D\	4dd 4f 4d/	.	4dd\	pro-	dzie-	.
4F 4D 4DD\	4d 4A< 4F</	.	4d/	-si.	-ci.	.
4r	4r	.	4r	.	.	.
=:|!	=:|!	=:|!	=:|!	=:|!	=:|!	=:|!
*-	*-	*-	*-	*-	*-	*-
!!!system-decoration: p1{p2}
!!!RDF**kern: > = above
!!!RDF**kern: < = below
!!!ENC: Andrzej Gręziak
!!!END: 2025-03-06
!!!ENC: Marta Lawrence
!!!END: 2025-03-22
